docs/.gitbook/assets/icon-trophy-16@dark.svg

<svg width="32" height="32" viewBox="0 0 16 16" fill="none" xmlns="http://www.w3.org/2000/svg">
<rect x="0" y="0" width="16" height="16" fill="#181c1f"/>
<path fill-rule="evenodd" clip-rule="evenodd" d="M4 1.75C4 1.33579 4.33579 1 4.75 1H11.25C11.6642 1 12 1.33579 12 1.75V3H14.25C14.6642 3 15 3.33579 15 3.75V6.25C15 7.76878 13.7688 9 12.25 9H11.874C11.491 10.4879 10.2734 11.6408 8.75 11.9298V13.5H11.25C11.6642 13.5 12 13.8358 12 14.25C12 14.6642 11.6642 15 11.25 15H8H4.75C4.33579 15 4 14.6642 4 14.25C4 13.8358 4.33579 13.5 4.75 13.5H7.25V11.9298C5.72659 11.6408 4.50899 10.4879 4.12602 9H3.75C2.23122 9 1 7.76878 1 6.25V3.75C1 3.33579 1.33579 3 1.75 3H4V1.75ZM4 4.5H2.5V6.25C2.5 6.94036 3.05964 7.5 3.75 7.5H4V4.5ZM5.5 3.75V2.5H10.5V3.75V8C10.5 9.38071 9.38071 10.5 8 10.5C6.61929 10.5 5.5 9.38071 5.5 8V3.75ZM12 4.5V7.5H12.25C12.9404 7.5 13.5 6.94036 13.5 6.25V4.5H12Z" fill="#fff"/>
</svg>

<svg xmlns="http://www.w3.org/2000/svg" width="32" height="32" fill="none" viewBox="0 0 16 16"><path fill="#181c1f" d="M0 0h16v16H0z"/><path fill="#fff" fill-rule="evenodd" d="M4 1.75A.75.75 0 0 1 4.75 1h6.5a.75.75 0 0 1 .75.75V3h2.25a.75.75 0 0 1 .75.75v2.5A2.75 2.75 0 0 1 12.25 9h-.376a4.01 4.01 0 0 1-3.124 2.93v1.57h2.5a.75.75 0 0 1 0 1.5h-6.5a.75.75 0 0 1 0-1.5h2.5v-1.57A4 4 0 0 1 4.126 9H3.75A2.75 2.75 0 0 1 1 6.25v-2.5A.75.75 0 0 1 1.75 3H4zM4 4.5H2.5v1.75c0 .69.56 1.25 1.25 1.25H4zm1.5-.75V2.5h5V8a2.5 2.5 0 0 1-5 0zm6.5.75v3h.25c.69 0 1.25-.56 1.25-1.25V4.5z" clip-rule="evenodd"/></svg>
